app/component-library/components/Icons/Icon/assets/explore.svg

<svg width="24" height="24" viewBox="0 0 24 24" fill="none" xmlns="http://www.w3.org/2000/svg">
<path d="M10.0594 11.9992C10.0594 13.0694 10.9297 13.9395 12 13.9395C13.0703 13.9395 13.9406 13.0694 13.9406 11.9992C13.9406 10.9291 13.0703 10.0589 12 10.0589C10.9297 10.0589 10.0594 10.9291 10.0594 11.9992Z" fill="currentColor"/>
<path fill-rule="evenodd" clip-rule="evenodd" d="M12 22C17.5228 22 22 17.5228 22 12C22 6.47715 17.5228 2 12 2C6.47715 2 2 6.47715 2 12C2 17.5228 6.47715 22 12 22ZM14.8459 7.05347C15.4411 6.90345 16.0562 7.07348 16.4914 7.50854C16.9265 7.93861 17.0966 8.5537 16.9465 9.14879L15.7211 14.0545C15.5161 14.8797 14.8759 15.5148 14.0556 15.7198L9.14913 16.945C9.00908 16.985 8.86404 17 8.72399 17C8.27386 17 7.83872 16.82 7.50862 16.4949C7.07349 16.0599 6.90344 15.4448 7.05348 14.8497L8.27886 9.94392C8.48392 9.12379 9.11912 8.48369 9.94437 8.27866L14.8459 7.05347Z" fill="currentColor"/>
</svg>

<svg xmlns="http://www.w3.org/2000/svg" width="24" height="24" viewBox="0 0 24 24" fill="none"><path d="M10.06 12c0 1.07.87 1.94 1.94 1.94 1.07 0 1.94-.87 1.94-1.94 0-1.07-.87-1.941-1.94-1.941-1.07 0-1.94.87-1.94 1.94z" fill="currentColor"/><path fill-rule="evenodd" clip-rule="evenodd" d="M12 22c5.523 0 10-4.477 10-10S17.523 2 12 2 2 6.477 2 12s4.477 10 10 10zm2.846-14.947c.595-.15 1.21.02 1.645.456.436.43.606 1.045.456 1.64l-1.226 4.906a2.28 2.28 0 0 1-1.665 1.665l-4.907 1.225c-.14.04-.285.055-.425.055-.45 0-.885-.18-1.215-.505a1.715 1.715 0 0 1-.456-1.645L8.28 9.944a2.28 2.28 0 0 1 1.665-1.665l4.902-1.226z" fill="currentColor"/></svg>
